assets/bnb/original.svg

<svg height="32" viewBox="0 0 32 32" width="32" xmlns="http://www.w3.org/2000/svg" xmlns:xlink="http://www.w3.org/1999/xlink"><defs><filter id="a" height="111.7%" width="111.7%" x="-5.8%" y="-4.2%"><feOffset dy=".5" in="SourceAlpha" result="shadowOffsetOuter1"/><feGaussianBlur in="shadowOffsetOuter1" result="shadowBlurOuter1" stdDeviation=".5"/><feComposite in="shadowBlurOuter1" in2="SourceAlpha" operator="out" result="shadowBlurOuter1"/><feColorMatrix in="shadowBlurOuter1" values="0 0 0 0 0 0 0 0 0 0 0 0 0 0 0 0 0 0 0.199473505 0"/></filter><filter id="b" height="117.5%" width="117.5%" x="-8.8%" y="-6.2%"><feOffset dy=".5" in="SourceAlpha" result="shadowOffsetOuter1"/><feGaussianBlur in="shadowOffsetOuter1" result="shadowBlurOuter1" stdDeviation=".5"/><feColorMatrix in="shadowBlurOuter1" values="0 0 0 0 0 0 0 0 0 0 0 0 0 0 0 0 0 0 0.204257246 0"/></filter><linearGradient id="c" x1="50%" x2="50%" y1="0%" y2="100%"><stop offset="0" stop-color="#fff" stop-opacity=".5"/><stop offset="1" stop-opacity=".5"/></linearGradient><circle id="d" cx="16" cy="15" r="15"/><path id="e" d="m12.116 13.404 3.884-3.884 3.886 3.886 2.26-2.26-6.146-6.146-6.144 6.144zm-6.116 1.596 2.26-2.26 2.26 2.26-2.26 2.26zm6.116 1.596 3.884 3.884 3.886-3.886 2.26 2.259-6.146 6.147-6.144-6.144-.003-.003zm9.364-1.596 2.26-2.26 2.26 2.26-2.26 2.26zm-3.188-.002h.002v.002l-2.294 2.295-2.291-2.292-.004-.003.004-.003.401-.402.195-.195 1.695-1.694 2.293 2.293"/></defs><g fill="none"><use fill="#000" filter="url(#a)" xlink:href="#d"/><use fill="#f3ba2f" fill-rule="evenodd" xlink:href="#d"/><use fill="url(#c)" fill-rule="evenodd" xlink:href="#d"/><circle cx="16" cy="15" r="14.5" stroke="#000" stroke-opacity=".097"/><use fill="#000" filter="url(#b)" xlink:href="#e"/><use fill="#fff" fill-rule="evenodd" xlink:href="#e"/></g></svg>

<svg xmlns="http://www.w3.org/2000/svg" xmlns:xlink="http://www.w3.org/1999/xlink" width="32" height="32" viewBox="0 0 32 32"><defs><filter id="b" width="111.7%" height="111.7%" x="-5.8%" y="-4.2%"><feOffset dy=".5" in="SourceAlpha" result="shadowOffsetOuter1"/><feGaussianBlur in="shadowOffsetOuter1" result="shadowBlurOuter1" stdDeviation=".5"/><feComposite in="shadowBlurOuter1" in2="SourceAlpha" operator="out" result="shadowBlurOuter1"/><feColorMatrix in="shadowBlurOuter1" values="0 0 0 0 0 0 0 0 0 0 0 0 0 0 0 0 0 0 0.199473505 0"/></filter><filter id="f" width="117.5%" height="117.5%" x="-8.8%" y="-6.2%"><feOffset dy=".5" in="SourceAlpha" result="shadowOffsetOuter1"/><feGaussianBlur in="shadowOffsetOuter1" result="shadowBlurOuter1" stdDeviation=".5"/><feColorMatrix in="shadowBlurOuter1" values="0 0 0 0 0 0 0 0 0 0 0 0 0 0 0 0 0 0 0.204257246 0"/></filter><linearGradient id="d" x1="50%" x2="50%" y1="0%" y2="100%"><stop offset="0" stop-color="#fff" stop-opacity=".5"/><stop offset="1" stop-opacity=".5"/></linearGradient><circle id="a" cx="16" cy="15" r="15"/><path id="e" d="M12.116 13.404 16 9.52l3.886 3.886 2.26-2.26L16 5l-6.144 6.144zM6 15l2.26-2.26L10.52 15l-2.26 2.26zm6.116 1.596L16 20.48l3.886-3.886 2.26 2.259L16 25l-6.144-6.144-.003-.003zM21.48 15l2.26-2.26L26 15l-2.26 2.26zm-3.188-.002h.002V15L16 17.295l-2.291-2.292-.004-.003.004-.003.401-.402.195-.195L16 12.706z"/></defs><g fill="none"><use xlink:href="#a" fill="#000" filter="url(#b)"/><use xlink:href="#a" fill="#f3ba2f" fill-rule="evenodd"/><use xlink:href="#a" fill="url(#d)" fill-rule="evenodd"/><circle cx="16" cy="15" r="14.5" stroke="#000" stroke-opacity=".097"/><use xlink:href="#e" fill="#000" filter="url(#f)"/><use xlink:href="#e" fill="#fff" fill-rule="evenodd"/></g></svg>
